X: 1323
T: Cecil Chapman's Dad's Polka No 2
B: australian traditional tunes wiki
M:4/4
L:1/8
R: Mazurka
Q: 1/4=100
K:D
V:1 
|:"D"DE FF/E/|DF A>d|dd dc|"A7"cB "G"B2|"Em"EF GG/F/|
EA "A7"c>c|1"A7"cc cB|"G"BA "D"A2:|2"A7"cc ce|"D"ed df/g/||
|:"D"aa ag|ff ff/e/|de fa|"G"b3e/f/|gg gf|
"Em"ee eB/c/|1"A7"Ac df|"D"a3f/g/:|2"Em"eB "A7"cA|"D"d2d/d/d||
% abcbook-tune_id 6342d53ac429c60a51928957


% abcbook-boost 0
% abcbook-tablature 
% abcbook-transpose 
% abcbook-lastupdated 1665324359155
% abcbook-soundfonts 
% abcbook-repeats 1
% NFF Book 2014

